X:178
M:6/8
L:1/8
K:G
|: G2g "tr"g2 (f/g/) | G2g B2g | A2a "tr"a2 (g/a/) | A2a c2a | G2g "tr"G2 (f/g/) | G2g B2e | dcB AGF | G3 G,3 :|

